app/assets/images/icons/active/tour--line.svg

<svg width="32" height="232" viewBox="0 0 32 232" xmlns="http://www.w3.org/2000/svg" xmlns:sketch="http://www.bohemiancoding.com/sketch/ns"><title>tour--line</title><g sketch:type="MSPage" fill="none"><path d="M16 123c-7.168 0-13 5.834-13 13.001s5.832 12.999 13 12.999c7.166 0 13-5.832 13-12.999 0-7.167-5.834-13.001-13-13.001zm0 24.016c-6.076 0-11.018-4.943-11.018-11.015 0-6.077 4.942-11.017 11.018-11.017 6.074 0 11.015 4.94 11.015 11.017 0 6.072-4.941 11.015-11.015 11.015zm0-20.078c-4.998 0-9.061 4.066-9.061 9.063 0 4.997 4.063 9.061 9.061 9.061 4.994 0 9.062-4.064 9.062-9.061s-4.068-9.063-9.062-9.063zm-2.965 12.025l3.93-2.133 1.998-3.796-3.793 2.001-2.135 3.928zm2.965 4.715c-4.237 0-7.678-3.446-7.678-7.677 0-4.235 3.441-7.679 7.678-7.679 4.232 0 7.679 3.444 7.679 7.679 0 4.231-3.447 7.677-7.679 7.677zm0 0" fill="#206FAC" sketch:type="MSShapeGroup"/><path d="M16 83c-7.168 0-13 5.834-13 13.001s5.832 12.999 13 12.999c7.166 0 13-5.832 13-12.999 0-7.167-5.834-13.001-13-13.001zm0 24.016c-6.076 0-11.018-4.943-11.018-11.015 0-6.077 4.942-11.017 11.018-11.017 6.074 0 11.015 4.94 11.015 11.017 0 6.072-4.941 11.015-11.015 11.015zm0-20.078c-4.998 0-9.061 4.066-9.061 9.063 0 4.997 4.063 9.061 9.061 9.061 4.994 0 9.062-4.064 9.062-9.061s-4.068-9.063-9.062-9.063zm-2.965 12.025l3.93-2.133 1.998-3.796-3.793 2.001-2.135 3.928zm2.965 4.715c-4.237 0-7.678-3.446-7.678-7.677 0-4.235 3.441-7.679 7.678-7.679 4.232 0 7.679 3.444 7.679 7.679 0 4.231-3.447 7.677-7.679 7.677zm0 0" fill="#fff" sketch:type="MSShapeGroup"/><path d="M16 43c-7.168 0-13 5.834-13 13.001s5.832 12.999 13 12.999c7.166 0 13-5.832 13-12.999 0-7.167-5.834-13.001-13-13.001zm0 24.016c-6.076 0-11.018-4.943-11.018-11.015 0-6.077 4.942-11.017 11.018-11.017 6.074 0 11.015 4.94 11.015 11.017 0 6.072-4.941 11.015-11.015 11.015zm0-20.078c-4.998 0-9.061 4.066-9.061 9.063 0 4.997 4.063 9.061 9.061 9.061 4.994 0 9.062-4.064 9.062-9.061s-4.068-9.063-9.062-9.063zm-2.965 12.025l3.93-2.133 1.998-3.796-3.793 2.001-2.135 3.928zm2.965 4.715c-4.237 0-7.678-3.446-7.678-7.677 0-4.235 3.441-7.679 7.678-7.679 4.232 0 7.679 3.444 7.679 7.679 0 4.231-3.447 7.677-7.679 7.677zm0 0" fill="#67747C" sketch:type="MSShapeGroup"/><path d="M16 3c-7.168 0-13 5.834-13 13.001s5.832 12.999 13 12.999c7.166 0 13-5.832 13-12.999 0-7.167-5.834-13.001-13-13.001zm0 24.016c-6.076 0-11.018-4.943-11.018-11.015 0-6.077 4.942-11.017 11.018-11.017 6.074 0 11.015 4.94 11.015 11.017 0 6.072-4.941 11.015-11.015 11.015zm0-20.078c-4.998 0-9.061 4.066-9.061 9.063 0 4.997 4.063 9.061 9.061 9.061 4.994 0 9.062-4.064 9.062-9.061s-4.068-9.063-9.062-9.063zm-2.965 12.025l3.93-2.133 1.998-3.796-3.793 2.001-2.135 3.928zm2.965 4.715c-4.237 0-7.678-3.446-7.678-7.677 0-4.235 3.441-7.679 7.678-7.679 4.232 0 7.679 3.444 7.679 7.679 0 4.231-3.447 7.677-7.679 7.677zm0 0" fill="#3B444F" sketch:type="MSShapeGroup"/><path d="M16 163c-7.168 0-13 5.834-13 13.001s5.832 12.999 13 12.999c7.166 0 13-5.832 13-12.999 0-7.167-5.834-13.001-13-13.001zm0 24.016c-6.076 0-11.018-4.943-11.018-11.015 0-6.077 4.942-11.017 11.018-11.017 6.074 0 11.015 4.94 11.015 11.017 0 6.072-4.941 11.015-11.015 11.015zm0-20.078c-4.998 0-9.061 4.066-9.061 9.063 0 4.997 4.063 9.061 9.061 9.061 4.994 0 9.062-4.064 9.062-9.061s-4.068-9.063-9.062-9.063zm-2.965 12.025l3.93-2.133 1.998-3.796-3.793 2.001-2.135 3.928zm2.965 4.715c-4.237 0-7.678-3.446-7.678-7.677 0-4.235 3.441-7.679 7.678-7.679 4.232 0 7.679 3.444 7.679 7.679 0 4.231-3.447 7.677-7.679 7.677zm0 0" fill="#16C98D" sketch:type="MSShapeGroup"/></g></svg>

<?xml version="1.0" encoding="UTF-8" standalone="no"?>
<svg width="32px" height="232px" viewBox="0 0 32 232" version="1.1" xmlns="http://www.w3.org/2000/svg" xmlns:xlink="http://www.w3.org/1999/xlink" xmlns:sketch="http://www.bohemiancoding.com/sketch/ns">
    <title>tour--line</title>
    <description>Created with Sketch (http://www.bohemiancoding.com/sketch)</description>
    <defs></defs>
    <g id="Points-of-interest" stroke="none" stroke-width="1" fill="none" fill-rule="evenodd" sketch:type="MSPage">
        <path d="M16,123 C8.832,123 3,128.834 3,136.001 C3,143.168 8.832,149 16,149 C23.166,149 29,143.168 29,136.001 C29,128.834 23.166,123 16,123 Z M16,147.016 C9.924,147.016 4.982,142.073 4.982,136.001 C4.982,129.924 9.924,124.984 16,124.984 C22.074,124.984 27.015,129.924 27.015,136.001 C27.015,142.073 22.074,147.016 16,147.016 Z M16,126.938 C11.002,126.938 6.939,131.004 6.939,136.001 C6.939,140.998 11.002,145.062 16,145.062 C20.994,145.062 25.062,140.998 25.062,136.001 C25.062,131.004 20.994,126.938 16,126.938 Z M13.035,138.963 L16.965,136.83 L18.963,133.034 L15.17,135.035 L13.035,138.963 Z M16,143.678 C11.763,143.678 8.322,140.232 8.322,136.001 C8.322,131.766 11.763,128.322 16,128.322 C20.232,128.322 23.679,131.766 23.679,136.001 C23.679,140.232 20.232,143.678 16,143.678 Z M16,143.678" id="tour-line--lp-blue" fill="#206FAC" sketch:type="MSShapeGroup"></path>
        <path d="M16,83 C8.832,83 3,88.834 3,96.001 C3,103.168 8.832,109 16,109 C23.166,109 29,103.168 29,96.001 C29,88.834 23.166,83 16,83 Z M16,107.016 C9.924,107.016 4.982,102.073 4.982,96.001 C4.982,89.924 9.924,84.984 16,84.984 C22.074,84.984 27.015,89.924 27.015,96.001 C27.015,102.073 22.074,107.016 16,107.016 Z M16,86.938 C11.002,86.938 6.939,91.004 6.939,96.001 C6.939,100.998 11.002,105.062 16,105.062 C20.994,105.062 25.062,100.998 25.062,96.001 C25.062,91.004 20.994,86.938 16,86.938 Z M13.035,98.963 L16.965,96.83 L18.963,93.034 L15.17,95.035 L13.035,98.963 Z M16,103.678 C11.763,103.678 8.322,100.232 8.322,96.001 C8.322,91.766 11.763,88.322 16,88.322 C20.232,88.322 23.679,91.766 23.679,96.001 C23.679,100.232 20.232,103.678 16,103.678 Z M16,103.678" id="tour-line--white" fill="#FFFFFF" sketch:type="MSShapeGroup"></path>
        <path d="M16,43 C8.832,43 3,48.834 3,56.001 C3,63.168 8.832,69 16,69 C23.166,69 29,63.168 29,56.001 C29,48.834 23.166,43 16,43 Z M16,67.016 C9.924,67.016 4.982,62.073 4.982,56.001 C4.982,49.924 9.924,44.984 16,44.984 C22.074,44.984 27.015,49.924 27.015,56.001 C27.015,62.073 22.074,67.016 16,67.016 Z M16,46.938 C11.002,46.938 6.939,51.004 6.939,56.001 C6.939,60.998 11.002,65.062 16,65.062 C20.994,65.062 25.062,60.998 25.062,56.001 C25.062,51.004 20.994,46.938 16,46.938 Z M13.035,58.963 L16.965,56.83 L18.963,53.034 L15.17,55.035 L13.035,58.963 Z M16,63.678 C11.763,63.678 8.322,60.232 8.322,56.001 C8.322,51.766 11.763,48.322 16,48.322 C20.232,48.322 23.679,51.766 23.679,56.001 C23.679,60.232 20.232,63.678 16,63.678 Z M16,63.678" id="tour-line--body-grey" fill="#67747C" sketch:type="MSShapeGroup"></path>
        <path d="M16,3 C8.832,3 3,8.834 3,16.001 C3,23.168 8.832,29 16,29 C23.166,29 29,23.168 29,16.001 C29,8.834 23.166,3 16,3 Z M16,27.016 C9.924,27.016 4.982,22.073 4.982,16.001 C4.982,9.924 9.924,4.984 16,4.984 C22.074,4.984 27.015,9.924 27.015,16.001 C27.015,22.073 22.074,27.016 16,27.016 Z M16,6.938 C11.002,6.938 6.939,11.004 6.939,16.001 C6.939,20.998 11.002,25.062 16,25.062 C20.994,25.062 25.062,20.998 25.062,16.001 C25.062,11.004 20.994,6.938 16,6.938 Z M13.035,18.963 L16.965,16.83 L18.963,13.034 L15.17,15.035 L13.035,18.963 Z M16,23.678 C11.763,23.678 8.322,20.232 8.322,16.001 C8.322,11.766 11.763,8.322 16,8.322 C20.232,8.322 23.679,11.766 23.679,16.001 C23.679,20.232 20.232,23.678 16,23.678 Z M16,23.678" id="tour-line--title-grey" fill="#3B444F" sketch:type="MSShapeGroup"></path>
        <path d="M16,163 C8.832,163 3,168.834 3,176.001 C3,183.168 8.832,189 16,189 C23.166,189 29,183.168 29,176.001 C29,168.834 23.166,163 16,163 Z M16,187.016 C9.924,187.016 4.982,182.073 4.982,176.001 C4.982,169.924 9.924,164.984 16,164.984 C22.074,164.984 27.015,169.924 27.015,176.001 C27.015,182.073 22.074,187.016 16,187.016 Z M16,166.938 C11.002,166.938 6.939,171.004 6.939,176.001 C6.939,180.998 11.002,185.062 16,185.062 C20.994,185.062 25.062,180.998 25.062,176.001 C25.062,171.004 20.994,166.938 16,166.938 Z M13.035,178.963 L16.965,176.83 L18.963,173.034 L15.17,175.035 L13.035,178.963 Z M16,183.678 C11.763,183.678 8.322,180.232 8.322,176.001 C8.322,171.766 11.763,168.322 16,168.322 C20.232,168.322 23.679,171.766 23.679,176.001 C23.679,180.232 20.232,183.678 16,183.678 Z M16,183.678" id="tour-line--green" fill="#16C98D" sketch:type="MSShapeGroup"></path>
    </g>
</svg>
